src/images/icons/orange-logo.svg

<svg fill="none" height="12" viewBox="0 0 93 12" width="93" xmlns="http://www.w3.org/2000/svg" xmlns:xlink="http://www.w3.org/1999/xlink"><clipPath id="a"><path d="m0 0h92.5161v11.6929h-92.5161z"/></clipPath><g clip-path="url(#a)"><g fill="#200e32"><path d="m22.7746 6.63243c0 1.23819-.4518 2.2634-1.358 3.07147-.9061.8081-2.0834 1.2131-3.5294 1.2131-1.4365 0-2.6042-.405-3.5032-1.2131-.8967-.80807-1.3462-1.83328-1.3462-3.07147v-1.81657c0-1.23402.4472-2.25715 1.3414-3.0673.8943-.810148 2.062-1.21731 3.4985-1.21731 1.4484 0 2.6256.405074 3.5342 1.21731.9085.81224 1.3627 1.83328 1.3627 3.0673zm-2.3402-1.82493c0-.78718-.2283-1.43237-.6802-1.93767s-1.0798-.75795-1.8765-.75795-1.4127.25056-1.8503.75377-.6564 1.1505-.6564 1.94185v1.83328c0 .8018.2211 1.45326.6659 1.95856.4424.5053 1.0607.75794 1.8503.75794.8015 0 1.427-.25264 1.8765-.75794s.6731-1.15676.6731-1.95856v-1.83328z"/><path d="m26.8774 6.73666v4.03404h-2.3403v-10.093454h4.3999c1.3295 0 2.3712.26309 3.1227.787184.7515.52409 1.1249 1.25698 1.1249 2.1945 0 .522-.1569.97093-.4733 1.34468-.3163.37376-.7777.67652-1.3865.90829.6897.17539 1.1844.4698 1.4864.88114.3021.41134.4519.92081.4519 1.52425v.74124c0 .28189.0452.5763.1332.88323.088.30694.2378.53454.4519.68274v.1462h-2.4116c-.2141-.1482-.352-.3946-.4162-.7412-.0642-.34665-.0952-.67447-.0952-.98349v-.7141c0-.50322-.1593-.89576-.4756-1.17556-.3187-.27979-.7658-.41969-1.3414-.41969zm0-1.55974h2.0191c.6565 0 1.1464-.12111 1.4698-.36123.3235-.24012.4852-.59717.4852-1.06697 0-.46145-.1617-.82895-.4852-1.10248-.3234-.27352-.7991-.40925-1.4317-.40925h-2.0596v2.93993z"/><path d="m41.4823 8.59388h-4.0954l-.7943 2.17782h-2.3641l4.0146-10.093477h2.3973l4.0003 10.093477h-2.364zm-3.5175-1.58689h2.942l-1.4436-3.96514h-.0476z"/><path d="m55.0012 10.7707h-2.3331l-4.7114-6.89879-.0476.00626v6.89043h-2.3403v-10.091354h2.3403l4.7114 6.890444.0476-.00626v-6.884184h2.3331z"/><path d="m66.0813 9.39118c-.3472.39672-.8895.75172-1.622 1.06072-.7349.309-1.6624.4635-2.785.4635-1.427 0-2.5923-.3842-3.4937-1.15047-.9038-.7663-1.3556-1.76228-1.3556-2.98794v-2.10681c0-1.2194.4352-2.21538 1.3033-2.98377.868-.770477 1.9858-1.154672 3.3534-1.154672 1.4222 0 2.5091.298586 3.2654.897842.7563.59926 1.1416 1.38645 1.1582 2.36155l-.0166.04176h-2.2047c-.0428-.53662-.2402-.96049-.5922-1.2716-.352-.31112-.8681-.46772-1.5459-.46772-.7159 0-1.2938.23804-1.7314.71619-.4376.47816-.6564 1.09203-.6564 1.84581v2.11933c0 .7663.2259 1.38853.6802 1.86668.4542.47816 1.0654.71619 1.836.71619.5446 0 .9823-.04802 1.3152-.14616.3306-.09605.5827-.21715.7539-.35914v-1.86668h-2.0667v-1.40106h4.407v3.80645z"/><path d="m75.2025 6.33368h-4.8327v2.87728h5.6509v1.55974h-7.9912v-10.093454h7.9745v1.559744h-5.6342v2.53694h4.8327z"/><path d="m83.1167 4.81978v-4.155229h1.4959c.6374 0 1.1512.167044 1.5364.501129.3853.33409.5803.76632.5803 1.2946v.56795c0 .53036-.1926.96259-.5803 1.29459-.3852.332-.899.49905-1.5364.49905h-1.4959zm.6612-3.71256v3.27198h.8371c.4519 0 .8063-.12737 1.0655-.38003.2592-.25265.3901-.5763.3901-.97303v-.57421c0-.39256-.1309-.71412-.3901-.96677-.2592-.25266-.616-.38003-1.0655-.38003h-.8371z"/><path d="m88.3824.664551 1.553 3.376379h.019l1.5531-3.376379h.8443v4.157319h-.6588v-1.64539l.0666-1.68924-.0167-.00208-1.5816 3.33671h-.4376l-1.5744-3.32836-.0166.00209.0642 1.68088v1.64539h-.6588v-4.157319z"/></g><path d="m10.3954 10.5986v-10.18112l-7.32997 2.22373z" fill="#eb6309"/><path d="m9.3301 11.0674-6.39765-6.08449-2.93245 4.79825z" fill="#eb6309"/><path d="m79.9112 0h-.4757v11.6929h.4757z" fill="#200e32"/></g></svg>

<svg width="93" height="12" viewBox="0 0 93 12" fill="none" xmlns="http://www.w3.org/2000/svg">
<g clip-path="url(#clip0)">
<path d="M22.7746 6.63243C22.7746 7.87062 22.3228 8.89583 21.4166 9.7039C20.5105 10.512 19.3332 10.917 17.8872 10.917C16.4507 10.917 15.283 10.512 14.384 9.7039C13.4873 8.89583 13.0378 7.87062 13.0378 6.63243V4.81586C13.0378 3.58184 13.485 2.55871 14.3792 1.74856C15.2735 0.938412 16.4412 0.53125 17.8777 0.53125C19.3261 0.53125 20.5033 0.936324 21.4119 1.74856C22.3204 2.5608 22.7746 3.58184 22.7746 4.81586V6.63243ZM20.4344 4.8075C20.4344 4.02032 20.2061 3.37513 19.7542 2.86983C19.3023 2.36453 18.6744 2.11188 17.8777 2.11188C17.081 2.11188 16.465 2.36244 16.0274 2.86565C15.5898 3.36886 15.371 4.01615 15.371 4.8075V6.64078C15.371 7.44258 15.5921 8.09404 16.0369 8.59934C16.4793 9.10464 17.0976 9.35728 17.8872 9.35728C18.6887 9.35728 19.3142 9.10464 19.7637 8.59934C20.2132 8.09404 20.4368 7.44258 20.4368 6.64078V4.8075H20.4344Z" fill="#200E32"/>
<path d="M26.8774 6.73666V10.7707H24.5371V0.677246H28.937C30.2665 0.677246 31.3082 0.940336 32.0597 1.46443C32.8112 1.98852 33.1846 2.72141 33.1846 3.65893C33.1846 4.18093 33.0277 4.62986 32.7113 5.00361C32.395 5.37737 31.9336 5.68013 31.3248 5.9119C32.0145 6.08729 32.5092 6.3817 32.8112 6.79304C33.1133 7.20438 33.2631 7.71385 33.2631 8.31729V9.05853C33.2631 9.34042 33.3083 9.63483 33.3963 9.94176C33.4843 10.2487 33.6341 10.4763 33.8482 10.6245V10.7707H31.4366C31.2225 10.6225 31.0846 10.3761 31.0204 10.0295C30.9562 9.68285 30.9252 9.35503 30.9252 9.04601V8.33191C30.9252 7.82869 30.7659 7.43615 30.4496 7.15635C30.1309 6.87656 29.6838 6.73666 29.1082 6.73666H26.8774ZM26.8774 5.17692H28.8965C29.553 5.17692 30.0429 5.05581 30.3663 4.81569C30.6898 4.57557 30.8515 4.21852 30.8515 3.74872C30.8515 3.28727 30.6898 2.91977 30.3663 2.64624C30.0429 2.37272 29.5672 2.23699 28.9346 2.23699H26.875V5.17692H26.8774Z" fill="#200E32"/>
<path d="M41.4823 8.59388H37.3869L36.5926 10.7717H34.2285L38.2431 0.678223H40.6404L44.6407 10.7717H42.2767L41.4823 8.59388ZM37.9648 7.00699H40.9068L39.4632 3.04185H39.4156L37.9648 7.00699Z" fill="#200E32"/>
<path d="M55.0012 10.7707H52.6681L47.9567 3.87191L47.9091 3.87817V10.7686H45.5688V0.677246H47.9091L52.6205 7.56769L52.6681 7.56143V0.677246H55.0012V10.7707Z" fill="#200E32"/>
<path d="M66.0813 9.39118C65.7341 9.7879 65.1918 10.1429 64.4593 10.4519C63.7244 10.7609 62.7969 10.9154 61.6743 10.9154C60.2473 10.9154 59.082 10.5312 58.1806 9.76493C57.2768 8.99863 56.825 8.00265 56.825 6.77699V4.67018C56.825 3.45078 57.2602 2.4548 58.1283 1.68641C58.9963 0.915933 60.1141 0.531738 61.4817 0.531738C62.9039 0.531738 63.9908 0.830324 64.7471 1.42958C65.5034 2.02884 65.8887 2.81603 65.9053 3.79113L65.8887 3.83289H63.684C63.6412 3.29627 63.4438 2.8724 63.0918 2.56129C62.7398 2.25017 62.2237 2.09357 61.5459 2.09357C60.83 2.09357 60.2521 2.33161 59.8145 2.80976C59.3769 3.28792 59.1581 3.90179 59.1581 4.65557V6.7749C59.1581 7.5412 59.384 8.16343 59.8383 8.64158C60.2925 9.11974 60.9037 9.35777 61.6743 9.35777C62.2189 9.35777 62.6566 9.30975 62.9895 9.21161C63.3201 9.11556 63.5722 8.99446 63.7434 8.85247V6.98579H61.6767V5.58473H66.0837V9.39118H66.0813Z" fill="#200E32"/>
<path d="M75.2025 6.33368H70.3698V9.21096H76.0207V10.7707H68.0295V0.677246H76.004V2.23699H70.3698V4.77393H75.2025V6.33368Z" fill="#200E32"/>
<path d="M83.1167 4.81978V0.664551H84.6126C85.25 0.664551 85.7638 0.831595 86.149 1.16568C86.5343 1.49977 86.7293 1.932 86.7293 2.46028V3.02823C86.7293 3.55859 86.5367 3.99082 86.149 4.32282C85.7638 4.65482 85.25 4.82187 84.6126 4.82187H83.1167V4.81978ZM83.7779 1.10722V4.3792H84.615C85.0669 4.3792 85.4213 4.25183 85.6805 3.99917C85.9397 3.74652 86.0706 3.42287 86.0706 3.02614V2.45193C86.0706 2.05937 85.9397 1.73781 85.6805 1.48516C85.4213 1.2325 85.0645 1.10513 84.615 1.10513H83.7779V1.10722Z" fill="#200E32"/>
<path d="M88.3824 0.664551L89.9354 4.04093H89.9544L91.5075 0.664551H92.3518V4.82187H91.693V3.17648L91.7596 1.48724L91.7429 1.48516L90.1613 4.82187H89.7237L88.1493 1.49351L88.1327 1.4956L88.1969 3.17648V4.82187H87.5381V0.664551H88.3824Z" fill="#200E32"/>
<path d="M10.3954 10.5986V0.41748L3.06543 2.64121L10.3954 10.5986Z" fill="#EB6309"/>
<path d="M9.3301 11.0674L2.93245 4.98291L0 9.78116L9.3301 11.0674Z" fill="#EB6309"/>
<path d="M79.9112 0H79.4355V11.6929H79.9112V0Z" fill="#200E32"/>
</g>
<defs>
<clipPath id="clip0">
<rect width="92.5161" height="11.6929" fill="white"/>
</clipPath>
</defs>
</svg>
